X: 3784
T: Bishop, The
R: polka
M: 2/4
K: Gmajor
|:Aa- ag-|gf- fe|fa ec|dB AG|
Aa 2g-|gf- fe|fa B^d|e2 E2:|
|:ed- dc/B/|ce- ed|ca Ac|BE E2|
Ac- cB/A/|Ba GF|ed cB|A2 A,2:|
|:Gg- gf-|fe- ed|eg dB|cA GF|
Gg- gf-|fe- ed|eg A^c|d2 D2:|
|:dc- cB/A/|Bd- dc|Bg GB|AD D2|
GB- BA/G/|Ag FE|dc BA|G2 G,2:|

